X:4
T:Kalenda Maya
C:Raimbault de Vaqueiras
O:(XIIe siècle)
Z:Transcrit et/ou corrigé par B@D - 2006-09-30
Z:Pour toute observation mailto:-@-
M:3/4
L:1/4
Q:"Bien rythmé et souple " 3/4=63
K:G
V:1
B | d2d | (e2d) | (c2d) | (e2=f) | e3 | !breath!d2e | (fe).d | (B2c) | (B2A) | !breath!G2B |
d2d | (e2d) | (c2d) | (e2=f) | e3 | !breath!d2e | ^f2g | (fe).d | (B2c) | (B2A) | !breath!G2B | d2d | (e2=f) |
(d2c) | B2G | (A2B) | (d2e) | =f2f | (d2c) | (B2A) | !breath!G2(B | A3) | G2(B | A3) | !breath!G2B |
d2d | B2B | (A2G) | !breath!G2(B | A3) | G2(B | A3) | !breath!G2B | d2d | (B2c) | ((3B/c/B/ A2) | (AG2) |]
V:2 clef=perc stafflines=1 staffscale=0.6
f | fzf | fzf | fzf | fzf | fzf | fzf | fzf | fzf | fzf | fzz |
fzf | fzf | fzf | fzf | fzf | fzf | fzf | fzf | fzf | fzf | fzz | fzf | fzf | 
fff | fzf | fzf | fzf | fff | fzf | fzf | fzf | fff | fzf | fff | fzf | 
fzf | fzf | fff | fzf | fff | fzf | fff | fzz | fzz | fzz | fzz | ffz |]




%%header "$P0	 $IR 	$P1"
%%footer $D - Éditions Galouvielle - 2009 - À usage librement privé dans le cadre familial

